!!!COM: Ce/cile Chaminade
!!!CNT: Francais
!!!TXO: Francais
!!!OTL: "L'anneau d'argent"
!!!LYR: Ge/rard, Rosemonde
!!!ENC: Amanda Harris
!!!YOR: Album of Songs, Volume 1
!!!YOR: Da Capo Press
!!!ODT: 1891/
!!NB: Vocal melody and text encoded
**kern	**silbe
*clefG2	*
*k[b-e-a-]	*
*M2/8	*
*MM[104]	*
=4	=4
8r	.
{8B-	{Le
=5	=5
16e-	cher
16e-	an-
16f	-neau
16f	d'ar-
=6	=6
8e-	-gent
8f	que
=7	=7
16g	vous
16g	m'a-
16a-	-vez
16a-	don-
=8	=8
4b-}	-ne/,}
=9	=9
{8cc	{Garde
16cc	en
16cc	son
=10	=10
8b-	cercle-
16a-	-e/-
16g	|
=11	=11
[4b-	-troit
=12	=12
8b-]	|
16a-	nos
16a-	pro-
=13	=13
8g	-mes-
16f	-ses
16e-	en-
=14	=14
4g	-clo-
=15	=15
8f}	-ses;}
{8B-	{De
=16	=16
16e-	tant
16e-	de
16f	sou-
16f	-ve-
=17	=17
8e-	-nirs
16f	re-
16f	-ce/-
=18	=18
8g	-leur
16b-	obs-
16b-	-ti-
=19	=19
[4ee-	-ne/,
=20	=20
8ee-]	|
8ee-	Lui
=21	=21
16dd	seul
16dd	m'a
16cc	con-
16cc	-so-
=22	=22
8dd	-le/e
16cc	en
16cc	mes
=23	=23
8b-	heu-
16an	-res
16an	mo-
=24	=24
4g	-ro-
=25	=25
8f}	-ses,}
{8b-	{Lui
=26	=26
16an	seul
16an	m'a
16g	con-
16g	-so-
=27	=27
8an	-le/e
16g	en
16g	mes
=28	=28
8f	heu-
16e-	-res
16e-	mo-
=29	=29
4d	-ro-
=30	=30
4c	|
=31	=31
8B-}	-ses.}
16r	.
{16B-	{Tel
=32	=32
16f	un
16f	ru-
16g	-ban
16g	qu'on
=33	=33
8e-	mit
8f	au-
=34	=34
16g	-tour
16g	de
16a-	fleurs
16a-	e/
=35	=35
16f	clo-
16f}	-ses}
{16g	{Tient
16g	en-
=36	=36
8a-	-cor
16b-	le
16b-	bou-
=37	=37
8g	-quet
8b-	a-
=38	=38
16cc	-lors
16cc	qu'il
16dd	est
16dd	fa-
=39	=39
8.b-}	-ne/,}
{16B-	{Tel
=40	=40
16f	l'humble
16f	an-
16g	-neau
16g	d'ar-
=41	=41
8e-	-gent
8f	que
=42	=42
16g	vous
16g	m'a-
16a-	-vez
16a-	don-
=43	=43
8f}	-ne/}
{8b-	{Garde
=44	=44
16cc	en
16cc	son
16ff	cercle-
16ff	-e/-
=45	=45
8ee-	-troit
16b-	nos
16b-	pro-
=46	=46
8a-	-mes-
16g	-ses
16g	en-
=47	=47
4b-	-clo-
=48	=48
8b-}	-ses.}
{8B-	{Aus-
=49	=49
16e-	-si,
16e-	lors-
16f	-que
16f	vien-
=50	=50
8e-	-dra
8f	l'ou-
=51	=51
16g	-bli
16g	de
16a-	tou-
16a-	-tes
=52	=52
8b-	cho-
8b-}	-ses,}
=53	=53
{8cc	{Dans
16cc	le
16cc	cer-
=54	=54
4b-	-cueil,
=55	=55
8cc	de
16cc	blanc
16cc	sa-
=56	=56
16b-	-tin
16b-	ca-
16a-	-pi-
16g	-ton-
=57	=57
[4b-	-ne/,
=58	=58
8b-]}	|}
{8B-	{Lors-
=59	=59
16e-	-que
16e-	je
16f	dor-
16f	-mi-
=60	=60
8e-	-rai,
8f	tre\s
=61	=61
16g	pa^-
16g	-le
16b-	sur
16b-	des
=62	=62
4ee-	ro-
=63	=63
8e-}	-ses,}
{8ee-	{Je
=64	=64
16dd	veux
16dd	qu'il
16cc	brille-
16cc	-en-
=65	=65
8b-	-cor
16cc	a\
16cc	mon
=66	=66
8b-	doigt
16a-	de/-
16a-	-char-
=67	=67
8g}	-ne/,}
{8cc	{Le
=68	=68
16b-	cher
16b-	an-
16g	-neau
16g	d'ar-
=69	=69
8e-	-gent
8a-	que
=70	=70
16g	vous
16g	m'a-
16f	-vez
16f	don-
=71	=71
4e-}	-ne/.}
*-	*-
